X:196 
T:Slow Train to Dublin* (reel), The  
S:Grier MS
F:file ID: cre.4/196slow_t
B:CRE4.146: gan ainm
Q:180
L:1/8
M:4/4
R:reel
K:D
FAdA FAdA|BGAF GE E2|FAdA FAdA|Bdeg fd d2:|
g2bg f2 af|efed cAAc|dABG FAAf|afeg fd d2:|

%%%

